X: 4
T: High Part Of The Road, The
Z: leprecawn
S: https://thesession.org/tunes/183#setting52302
R: jig
M: 6/8
L: 1/8
K: Gmaj
A|: B2B cBc|ded cAG|F2D DED|DGG FGA|
B2 B cBc|dcA d2e|fed cAF|AGF ~G3:|
|: g2 g def|g2 a bag|f2 d dfg|afd cAG|
g2 g def|g2a bag|fed cAF|AGF G3:|

%-------------------- TUNE SEPARATOR --------------------%

